X:1
T:Title
%%score { ( 1 3 ) | ( 2 4 ) }
L:1/8
M:4/4
K:Eb
V:1 treble nm="Grand Piano"
V:3 treble 
V:2 bass 
V:4 bass 
V:1
 z4 z2[Q:1/4=92] [GB][FA] | GGGB EE[GB][GB] | ccec [GB]2 [GB][GB] | ccec [GB][GB][FA][EG] | %4
 [DF]6 [DB][DA] | GGGB EE[GB][GB] | ccec [GB]2 [Ge][Gd] | ccfe ddcd |[M:9/8] [EGe]8- [EGe] | %9
[M:1/4] ed |[M:4/4] c6 z2 | [Ac]4 z4 | c6 z2 | [GB]6 z2 | GGGB EE[GB][GB] | ccec [GB]2 [Ge][Gd] | %16
 ccfe ddcd |[M:17/8] [Ge]-[Ge]-[Ge]-[Ge]-[Ge]-[Ge]- [Ge]3 z z z z z z z2 |] %18
V:2
 z4 z2 [E,E][E,E] | [E,B,E][E,B,E][E,B,E][E,G,E] [E,G,][E,G,][E,E][E,E] | %2
 [A,EA][A,EA][A,CA][A,EA][K:bass] [E,E]2 [E,E][E,E] | %3
 [A,EA][A,EA][A,CA][A,EA][K:bass] [E,E][E,B,][D,B,][E,B,] | [B,,B,]6 [B,,B,][B,,B,] | %5
 [E,B,E][E,B,E][E,B,E][E,G,E] [E,G,][E,G,][E,E][E,E] | %6
 [A,EA][A,EA][A,CA][A,EA][K:bass] [E,E]2 [E,E][E,E] | %7
 [A,EA][A,EA][A,CA][A,CA] [B,A][B,FA][B,FA][B,FA] |[M:9/8][K:bass] E,8- E, |[M:1/4][K:treble] GB | %10
[M:4/4] A6 z2 | [E,E]E,E,E, E,2[K:treble] GB | A6 z2 | [E,E]2 E,E, E,2 [E,E][E,E] | %14
 [E,B,E][E,B,E][E,B,E][E,G,E] [E,G,][E,G,][E,E][E,E] | %15
 [A,EA][A,EA][A,CA][A,EA][K:bass] [E,E]2 [E,E][E,E] | %16
 [A,EA][A,EA][A,CA][A,CA] [B,A][B,FA][B,FA][B,FA] | %17
[M:17/8][K:bass] [E,E]-[E,E]-[E,E]-[E,E]-[E,E]-[E,E]- [E,E]3 z z z z z z z2 |] %18
V:3
 x8 | x8 | x8 | x8 | x8 | x8 | x8 | x8 |[M:9/8] x9 |[M:1/4] x2 |[M:4/4] z2 EE Ee e/d/c | %11
 z EEE [EGB]2 ed | z2 EE Eedc | z2 EE E2 [GB][FA] | x8 | x8 | x8 |[M:17/8] x17 |] %18
V:4
 x8 | x8 | x4[K:bass] x4 | x4[K:bass] x4 | x8 | x8 | x4[K:bass] x4 | x8 |[M:9/8][K:bass] x9 | %9
[M:1/4][K:treble] x2 |[M:4/4] z2 A,A, A,[A,CA][A,CA][A,EA] | x6[K:treble] x2 | %12
 z2 A,A, A,[A,CA][A,CA][A,EA] | x8 | x8 | x4[K:bass] x4 | x8 |[M:17/8][K:bass] x17 |] %18

